web-magafilio/image/home/icon-acompanhe.svg

<svg width="51" height="45" viewBox="0 0 51 45" fill="none" xmlns="http://www.w3.org/2000/svg">
<path d="M46.2245 0.258301H4.71381C2.37884 0.258301 0.562744 2.16087 0.562744 4.40937V29.3158C0.562744 31.6508 2.37884 33.4669 4.71381 33.4669H21.3181L19.2426 41.769H13.016C12.2376 41.769 11.6323 42.4608 11.6323 43.1527C11.6323 43.931 12.2376 44.5364 13.016 44.5364H37.9224C38.6142 44.5364 39.3061 43.931 39.3061 43.1527C39.3061 42.4608 38.6142 41.769 37.9224 41.769H31.6958L29.6202 33.4669H46.2245C48.473 33.4669 50.3756 31.6508 50.3756 29.3158V4.40937C50.3756 2.16087 48.473 0.258301 46.2245 0.258301ZM22.0964 41.769L23.4801 36.2342H27.4582L28.8419 41.769H22.0964ZM47.6082 29.3158C47.6082 30.0941 46.9164 30.6995 46.2245 30.6995H4.71381C3.93549 30.6995 3.33012 30.0941 3.33012 29.3158V4.40937C3.33012 3.71753 3.93549 3.02568 4.71381 3.02568H46.2245C46.9164 3.02568 47.6082 3.71753 47.6082 4.40937V29.3158Z" fill="#FDAA08"/>
</svg>

<svg width="51" height="45" fill="none" xmlns="http://www.w3.org/2000/svg"><path d="M46.224.258H4.715C2.379.258.563 2.161.563 4.41v24.907c0 2.335 1.816 4.15 4.15 4.15h16.605l-2.075 8.303h-6.227c-.778 0-1.384.692-1.384 1.384 0 .778.606 1.383 1.384 1.383h24.906c.692 0 1.384-.605 1.384-1.383 0-.692-.692-1.384-1.384-1.384h-6.226l-2.076-8.302h16.604c2.249 0 4.152-1.816 4.152-4.151V4.409c0-2.248-1.903-4.15-4.151-4.15zM22.096 41.77l1.384-5.535h3.978l1.384 5.535h-6.746zm25.512-12.453c0 .778-.692 1.384-1.383 1.384H4.713a1.366 1.366 0 01-1.384-1.384V4.409c0-.691.605-1.383 1.384-1.383h41.51c.692 0 1.384.692 1.384 1.383v24.907z" fill="#FDAA08"/></svg>
